X:1
T:Ah Robin, gentle Robin
T:Round
C:William Cornysh
M:4/2% meter
L:1/4% length of shortest note
%Q: % tempo
K:Cmaj% key
"^1" F2 D2 E2 z2 | F2 E D E2 z2 | E>E A A G>G F F | G G E E D2 z2 |
w:Ah Ro-bin, gen-tle Ro-bin. Tell me how thy le-man doth and thou shalt know of mine.
"^2" D2 _B,2 A,2 z2 | D2 C _B, A,2 z2 | A, A, A, A, C C D D | E E A, A, D2 z2 |
w:Ah Ro-bin, gen-tle Ro-bin. Tell me how thy le-man doth and thou shalt know of mine.

